docs/public/static/images/examples/vite.svg

<svg width="40" height="40" viewBox="0 0 40 40" fill="none" xmlns="http://www.w3.org/2000/svg">
<path d="M35.8025 8.41363L20.5776 36.0435C20.5073 36.1729 20.4035 36.2809 20.2771 36.3565C20.1507 36.432 20.0064 36.4721 19.8592 36.4727C19.7119 36.4732 19.5673 36.4342 19.4403 36.3597C19.3134 36.2851 19.2088 36.1779 19.1375 36.0491L3.61079 8.41507C3.26317 7.79748 3.78382 7.04827 4.47484 7.1729L19.7163 9.93829C19.8133 9.95602 19.9128 9.95602 20.0098 9.93829L34.9329 7.17711C35.621 7.04971 36.1444 7.79327 35.8025 8.41363Z" fill="url(#paint0_linear_1518_18246)"/>
<path d="M26.9751 3.54784L15.7078 5.78836C15.6171 5.80697 15.5351 5.85516 15.4747 5.92528C15.4144 5.9954 15.3789 6.0837 15.374 6.17609L14.6817 18.0544C14.6772 18.1191 14.6877 18.1839 14.7126 18.2436C14.7375 18.3035 14.7761 18.3566 14.8252 18.3989C14.8743 18.4412 14.9326 18.4713 14.9954 18.487C15.0583 18.5027 15.1239 18.5034 15.1872 18.4892L18.3235 17.754C18.617 17.6848 18.8829 17.9479 18.822 18.247L17.8901 22.8789C17.8751 22.9496 17.8786 23.0229 17.9004 23.0917C17.9224 23.1606 17.9618 23.2225 18.0149 23.2714C18.068 23.3203 18.1329 23.3546 18.2034 23.3708C18.2737 23.3869 18.3472 23.3845 18.4163 23.3636L20.3535 22.7681C20.4227 22.7473 20.496 22.7448 20.5665 22.761C20.6368 22.7772 20.7017 22.8114 20.7549 22.8603C20.8081 22.9092 20.8475 22.9712 20.8693 23.04C20.8913 23.1089 20.8948 23.1822 20.8796 23.2528L19.398 30.5297C19.3053 30.9839 19.902 31.2317 20.15 30.8426L20.3161 30.5808L29.4967 11.9865C29.6504 11.675 29.386 11.3205 29.0494 11.3869L25.8204 12.0184C25.7503 12.0315 25.6779 12.0264 25.6104 12.0035C25.5428 11.9807 25.4822 11.941 25.4345 11.888C25.3866 11.835 25.3533 11.7707 25.3374 11.7012C25.3216 11.6317 25.3238 11.5592 25.3439 11.4907L27.4515 4.07548C27.4717 4.00691 27.4741 3.93435 27.4582 3.86467C27.4423 3.79499 27.4087 3.73052 27.3607 3.67756C27.3128 3.62461 27.252 3.58484 27.1843 3.56213C27.1165 3.53942 27.044 3.53455 26.9738 3.54784H26.9751Z" fill="url(#paint1_linear_1518_18246)"/>
<defs>
<linearGradient id="paint0_linear_1518_18246" x1="3.23138" y1="6.18563" x2="22.5445" y2="32.03" gradientUnits="userSpaceOnUse">
<stop stop-color="#41D1FF"/>
<stop offset="1" stop-color="#BD34FE"/>
</linearGradient>
<linearGradient id="paint1_linear_1518_18246" x1="18.84" y1="4.1558" x2="22.367" y2="28.0039" gradientUnits="userSpaceOnUse">
<stop stop-color="#FFEA83"/>
<stop offset="0.083" stop-color="#FFDD35"/>
<stop offset="1" stop-color="#FFA800"/>
</linearGradient>
</defs>
</svg>

<svg width="40" height="40" fill="none" xmlns="http://www.w3.org/2000/svg"><path d="M35.8 8.41 20.58 36.04a.82.82 0 0 1-1.44 0L3.6 8.43c-.35-.62.17-1.37.86-1.25l15.25 2.77c.1.02.2.02.29 0l14.92-2.76c.7-.13 1.21.61.87 1.23Z" fill="url(#a)"/><path d="M26.98 3.55 15.7 5.79a.42.42 0 0 0-.34.39l-.69 11.87a.42.42 0 0 0 .5.44l3.14-.74c.3-.07.56.2.5.5l-.93 4.63a.42.42 0 0 0 .31.5c.07 0 .15 0 .22-.02l1.93-.6a.42.42 0 0 1 .53.5l-1.48 7.27c-.1.45.5.7.75.31l.17-.26 9.18-18.6c.15-.3-.11-.66-.45-.6l-3.23.64a.42.42 0 0 1-.48-.53l2.11-7.41a.42.42 0 0 0-.48-.53Z" fill="url(#b)"/><defs><linearGradient id="a" x1="3.23" y1="6.19" x2="22.54" y2="32.03" gradientUnits="userSpaceOnUse"><stop stop-color="#41D1FF"/><stop offset="1" stop-color="#BD34FE"/></linearGradient><linearGradient id="b" x1="18.84" y1="4.16" x2="22.37" y2="28" gradientUnits="userSpaceOnUse"><stop stop-color="#FFEA83"/><stop offset=".08" stop-color="#FFDD35"/><stop offset="1" stop-color="#FFA800"/></linearGradient></defs></svg>
